src/assets/duotone/ClipboardExport.svg

<svg width="24" height="24" viewBox="0 0 24 24"  xmlns="http://www.w3.org/2000/svg">
<path opacity="0.4" d="M16.24 3.65039H7.76004C5.29004 3.65039 3.29004 5.66039 3.29004 8.12039V17.5304C3.29004 19.9904 5.30004 22.0004 7.76004 22.0004H16.23C18.7 22.0004 20.7 19.9904 20.7 17.5304V8.12039C20.71 5.65039 18.7 3.65039 16.24 3.65039Z" />
<path d="M14.3498 2H9.64977C8.60977 2 7.75977 2.84 7.75977 3.88V4.82C7.75977 5.86 8.59977 6.7 9.63977 6.7H14.3498C15.3898 6.7 16.2298 5.86 16.2298 4.82V3.88C16.2398 2.84 15.3898 2 14.3498 2Z" />
<path d="M15.53 16.47L10.81 11.75H12C12.41 11.75 12.75 11.41 12.75 11C12.75 10.59 12.41 10.25 12 10.25H9C8.59 10.25 8.25 10.59 8.25 11V14C8.25 14.41 8.59 14.75 9 14.75C9.41 14.75 9.75 14.41 9.75 14V12.81L14.47 17.53C14.62 17.68 14.81 17.75 15 17.75C15.19 17.75 15.38 17.68 15.53 17.53C15.82 17.24 15.82 16.76 15.53 16.47Z" />
</svg>

<?xml version="1.0" encoding="UTF-8"?>
<svg width="24" height="24" viewBox="0 0 24 24" xmlns="http://www.w3.org/2000/svg">
 <path d="m16.24 3.6504h-8.48c-2.47 0-4.47 2.01-4.47 4.47v9.41c0 2.46 2.01 4.47 4.47 4.47h8.47c2.47 0 4.47-2.01 4.47-4.47v-9.41c0.01-2.47-2-4.47-4.46-4.47z" opacity=".4"/>
 <path d="m14.35 2h-4.7c-1.04 0-1.89 0.84-1.89 1.88v0.94c0 1.04 0.84 1.88 1.88 1.88h4.71c1.04 0 1.88-0.84 1.88-1.88v-0.94c0.01-1.04-0.84-1.88-1.88-1.88z"/>
 <path d="m15.53 16.47-4.72-4.72h1.19c0.41 0 0.75-0.34 0.75-0.75s-0.34-0.75-0.75-0.75h-3c-0.41 0-0.75 0.34-0.75 0.75v3c0 0.41 0.34 0.75 0.75 0.75s0.75-0.34 0.75-0.75v-1.19l4.72 4.72c0.15 0.15 0.34 0.22 0.53 0.22s0.38-0.07 0.53-0.22c0.29-0.29 0.29-0.77 0-1.06z"/>
</svg>
